X:1
T:Mrs. Brodie Sheriff of Battleblent’s Strathspey
M:C
L:1/8
R:Strathspey
B:Kerr – Merry Melodies, vol. 2, No. 176 (c. 1880’s)
Z:AK/Fiddler’s Companion
K:G
D>EGA> B>A (3Bcd|e>g d>B (3eee e2|D>EGA> B>A (3Bcd|
e<g d>B (3AAA A2:||g>ae>g d>g (3BAG|g>ae>g (3aaa a2|
g>ae>g d>g (3BAG|B<d A>B (3GGG G2|g>ae>g d>g (3BAG|
g>ae>g (3aaa a2|(3bgg (3aff (3gee (3dgg|B<d A>B (3GGG G2||

